X: 0
T: Hark the Glad Sound!
Z: "Chesterfield" by Thomas Haweis, 1792
Z: Copyright © 2004 by Douglas D. Anderson
Z: Released To The Public Domain
L: 1/4
M: 3/4
Q: 1/4=120
V: P1 name="Staff"
%%MIDI program 1 19
K: G
[V: P1]  D G B | d2 c | (B c) A | G2 B | (A d) G | (F G) E | D2 A | (B A) G | (c B) A | (d c) B | e2 G | (E c) B | (A G) F | G3|]
w: Hark, the glad sound! the Sa-_ vior comes, The Sa-_ vior prom-_ ised long; Let ev-_ ery heart_ pre- pare_ a throne, And ev-_ ery voice_ a song.

